src/img/networks/vkontakte.svg

<svg width="35" height="35" viewBox="0 0 35 35" fill="none" xmlns="http://www.w3.org/2000/svg">
<circle cx="17.5" cy="17.5" r="17" fill="white" stroke="#44220F"/>
<g clip-path="url(#clip1)">
<path d="M27.4388 22.6885L26.2239 22.6886L24.4176 22.6886C24.2681 22.6886 24.0396 22.6698 23.8057 22.6296C23.565 22.5883 23.3631 22.5318 23.2451 22.4747C22.6894 22.2052 22.3331 21.795 21.9242 21.3144L21.9242 21.3144L21.9068 21.294C21.6391 20.9793 21.3401 20.6279 20.9558 20.3551C20.9558 20.3551 20.9558 20.3551 20.9557 20.3551L20.6663 20.7628C20.5504 20.6804 20.4457 20.6389 20.3862 20.6518L20.2812 20.163C20.1119 20.1993 19.9826 20.3036 19.9014 20.3841C19.8076 20.477 19.7197 20.5963 19.6403 20.7393L19.6395 20.7408L19.6341 20.7505C19.5541 20.8956 19.457 21.0718 19.3832 21.2873L19.3831 21.2877C19.2597 21.649 19.2137 22.0884 19.2137 22.6308V22.6885H19.1278C16.3538 22.6885 14.326 21.7219 12.6805 19.8693C11.1671 18.1655 10.0159 15.7681 8.73217 12.6042L8.73211 12.6041L8.70368 12.5341L12.3833 12.5342C12.4293 12.6453 12.4817 12.7785 12.664 13.2734L12.6641 13.2735L12.6701 13.2898C12.9404 14.0232 13.32 15.0529 13.7563 15.9307L27.4388 22.6885ZM27.4388 22.6885L27.4363 22.6295L27.4363 22.6294C27.4229 22.32 27.284 21.92 26.9547 21.4219C26.6285 20.9286 26.1363 20.3707 25.467 19.7522L25.4614 19.7473C25.2936 19.5998 24.7419 19.0913 24.5371 18.8454L24.5323 18.8396L24.5277 18.8338C24.3792 18.6443 24.2705 18.4194 24.284 18.1501C24.2961 17.9087 24.4063 17.7087 24.488 17.572C24.6994 17.2185 25.1039 16.7006 25.5009 16.1923L25.5279 16.1578L25.5279 16.1577C26.1974 15.3007 26.7241 14.6054 27.0637 14.026C27.4145 13.4276 27.494 13.0682 27.4475 12.8462L27.4388 22.6885ZM15.0055 12.7219L15.0724 12.6657L15.0724 12.6657C15.1546 12.5966 15.4599 12.3706 17.0381 12.386L15.0055 12.7219ZM15.0055 12.7219L15.1041 12.7535L15.1041 12.7535C15.3232 12.8237 15.5773 12.9319 15.7604 13.2054C15.9176 13.4401 15.9833 13.7436 16.0332 14.0789M15.0055 12.7219L16.0332 14.0789M16.0332 14.0789C16.104 14.555 16.1396 15.3319 16.0646 16.0322L16.0646 16.0323C16.0103 16.5382 15.9147 16.8732 15.811 17.0988C15.7587 17.2126 15.7034 17.3006 15.6487 17.3687C15.6213 17.4028 15.5945 17.4314 15.5689 17.4553C15.5561 17.4673 15.544 17.4778 15.5328 17.487C15.5272 17.4915 15.5221 17.4955 15.5176 17.499C15.5134 17.5022 15.5093 17.5052 15.5104 17.5044L15.3034 17.6582L15.058 17.5786C14.8103 17.4983 14.3788 17.1833 13.7563 15.9308L16.0332 14.0789ZM27.4365 12.7945L27.4473 12.8454L27.4365 12.7945ZM27.4365 12.7945L23.2905 12.7962C23.2458 12.9275 23.1863 13.0915 23.108 13.2863C22.8969 13.812 22.5507 14.5601 21.996 15.4961L21.996 15.4961C21.5914 16.1786 21.2477 16.6422 20.971 16.9513C20.7074 17.2458 20.4709 17.4386 20.2716 17.5194L20.1111 17.5844L19.9448 17.5362L19.9167 17.5281L19.7724 17.4862L19.675 17.3717C19.5185 17.1878 19.3995 16.8791 19.3531 16.3518L19.3531 16.3516C19.3055 15.8073 19.3468 15.1633 19.3838 14.5879L19.3852 14.5655C19.3852 14.5655 19.3852 14.5654 19.3852 14.5654C19.4315 13.841 19.46 13.3238 19.3862 12.9783L19.3862 12.9783L19.3035 12.5912C19.2058 12.5697 19.0828 12.5452 18.9288 12.5208C18.5379 12.4587 17.9372 12.395 17.0383 12.386L27.4365 12.7945ZM24.9403 22.573H24.4403H24.4343C24.2667 22.5752 24.0528 22.5517 23.8722 22.5222C23.7094 22.4956 23.4852 22.4506 23.3409 22.3807L23.3407 22.3806C22.8052 22.121 22.4376 21.6888 22.1029 21.2954C22.093 21.2838 22.0832 21.2722 22.0733 21.2606L22.0732 21.2605C21.7567 20.8884 21.4702 20.5549 21.0776 20.2763L21.0774 20.2763C20.798 20.0779 20.5683 20.0342 20.4088 20.0342C20.3421 20.0342 20.2831 20.0419 20.234 20.0525L20.2334 20.0526C20.063 20.0891 19.7515 20.2125 19.4781 20.7043C19.3804 20.8816 19.2893 21.0486 19.2151 21.2659L19.215 21.266C19.1376 21.4925 19.0854 21.7552 19.0598 22.0953L19.0232 22.5836L18.5342 22.5572C16.2045 22.4312 14.3651 21.5441 12.8278 19.8132L12.8277 19.8132C11.4214 18.2297 10.3358 16.0409 9.21199 13.3412L8.92386 12.6491H9.67359L10.7768 12.6492L11.909 12.6494H12.2558L12.3773 12.9742C12.4099 13.0612 12.4446 13.1554 12.4808 13.2534C12.486 13.2677 12.4913 13.2821 12.4967 13.2966L12.4968 13.2968C12.7923 14.0992 13.1849 15.1632 13.6433 16.0637L13.6434 16.0637C13.9724 16.7101 14.2669 17.1351 14.5368 17.394C14.7964 17.643 15.011 17.7189 15.2078 17.7189C15.4171 17.7189 15.6031 17.6387 15.7593 17.4676L15.7593 17.4675C15.9972 17.2068 16.19 16.7085 16.2561 15.8172L16.2561 15.8172C16.3073 15.1269 16.259 14.437 16.2045 14.0698L24.9403 22.573ZM24.9403 22.573V22.5729M24.9403 22.573V22.5729M24.9403 22.5729H26.5782H27.3974L27.0229 21.8443C26.7743 21.3606 26.2831 20.6995 25.3305 19.8191L25.3306 19.819L25.322 19.8115C25.1886 19.6937 24.6051 19.1615 24.3834 18.8937L24.3808 18.8906C24.3804 18.8901 24.3801 18.8897 24.3797 18.8892C24.2065 18.6702 24.1263 18.4639 24.1137 18.2649C24.101 18.0652 24.1535 17.8248 24.3279 17.5332C24.5395 17.1795 24.9101 16.7035 25.3755 16.1077L25.3756 16.1077C25.4053 16.0696 25.4362 16.0302 25.468 15.9894C25.9795 15.3358 26.7504 14.3506 27.0967 13.625L27.4378 12.9106L26.6461 12.9096C26.4078 12.9093 24.3741 12.9072 23.7765 12.9083L23.439 12.909L23.3134 13.2222C23.0664 13.8381 22.6007 14.7965 22.1009 15.6267C21.3193 16.9251 20.7636 17.4011 20.4463 17.5752C20.2954 17.6579 20.1955 17.6741 20.1403 17.6782C20.1093 17.6806 20.0828 17.6798 20.0468 17.6781C20.037 17.6777 20.0175 17.6766 19.9962 17.6761L19.7407 17.6015C19.7341 17.598 19.7265 17.5938 19.7182 17.589C19.685 17.5698 19.6462 17.5442 19.6119 17.5145L19.6119 17.5144C19.3847 17.3172 19.2415 16.9688 19.1858 16.4195C19.1306 15.876 19.1699 15.2408 19.2134 14.5614L19.2134 14.5614L19.2138 14.555C19.2313 14.2825 19.2497 13.9937 19.2565 13.7359C19.2631 13.4867 19.2607 13.2223 19.2213 13.018L19.1533 12.6659L18.798 12.6174C18.1504 12.5289 17.1454 12.4782 16.3876 12.5107L15.5818 12.5452L15.9711 13.2515C16.0965 13.4792 16.1569 13.7503 16.2045 14.0696L24.9403 22.5729ZM23.4001 12.4449C23.4001 12.4449 23.3997 12.4462 23.3991 12.4482C23.3998 12.4458 23.4001 12.4448 23.4001 12.4449Z" fill="#828282" stroke="#44220F"/>
</g>
<defs>
<clipPath id="clip1">
<rect width="20" height="19" fill="white" transform="translate(8 8)"/>
</clipPath>
</defs>
</svg>

<svg width="35" height="35" fill="none" xmlns="http://www.w3.org/2000/svg"><circle cx="17.5" cy="17.5" r="17" fill="#fff" stroke="#44220F"/><g clip-path="url(#clip1)"><path d="M27.439 22.689h-3.021c-.15 0-.378-.02-.612-.06a2.312 2.312 0 0 1-.56-.154c-.557-.27-.913-.68-1.322-1.16h0l-.017-.021c-.268-.315-.567-.666-.951-.939 0 0 0 0 0 0l-.29.408c-.116-.083-.22-.124-.28-.111l-.105-.489a.79.79 0 0 0-.38.221 1.573 1.573 0 0 0-.26.355l-.001.002-.006.01a3.29 3.29 0 0 0-.25.536h0c-.124.362-.17.801-.17 1.344v.058h-.086c-2.774 0-4.802-.967-6.447-2.82-1.514-1.703-2.665-4.1-3.949-7.265h0l-.028-.07h3.68c.045.111.098.244.28.74h0l.006.016c.27.733.65 1.763 1.086 2.64L27.44 22.69zm0 0l-.003-.06h0c-.013-.309-.152-.709-.481-1.207-.326-.493-.819-1.051-1.488-1.67l-.006-.005c-.167-.147-.72-.656-.924-.902l-.005-.005-.004-.006c-.149-.19-.258-.415-.244-.684.012-.241.122-.441.204-.578.211-.354.616-.871 1.013-1.38l.027-.034h0c.67-.857 1.196-1.553 1.536-2.132.35-.598.43-.958.384-1.18l-.01 9.843zm-12.434-9.967l.067-.056h0c.083-.07.388-.295 1.966-.28l-2.033.336zm0 0l.1.032h0c.218.07.472.178.655.451.158.235.223.539.273.874m-1.028-1.357l1.028 1.357m0 0c.071.476.107 1.253.032 1.953h0c-.055.506-.15.841-.254 1.067a1.285 1.285 0 0 1-.162.27.826.826 0 0 1-.131.13l-.008.005-.207.154-.245-.08c-.248-.08-.68-.395-1.302-1.647l2.277-1.852zm11.403-1.285l.011.051-.01-.05zm0 0l-4.145.002a9.673 9.673 0 0 1-.183.49 16.262 16.262 0 0 1-1.112 2.21h0c-.405.683-.748 1.146-1.025 1.455-.264.295-.5.488-.7.568l-.16.065-.166-.048-.028-.008-.145-.042-.097-.114c-.157-.184-.276-.493-.322-1.02h0c-.048-.545-.006-1.189.03-1.764l.002-.022s0 0 0 0c.046-.725.075-1.242.001-1.588h0l-.082-.387a6.345 6.345 0 0 0-.375-.07c-.391-.062-.992-.126-1.89-.135l10.397.409zm-2.496 9.779h-.506a3.497 3.497 0 0 1-.562-.05c-.163-.027-.387-.072-.531-.142h0c-.536-.26-.903-.692-1.238-1.086l-.03-.034h0c-.316-.373-.603-.706-.995-.985h0c-.28-.198-.51-.242-.67-.242a.83.83 0 0 0-.174.018h0c-.171.037-.483.16-.756.652a3.355 3.355 0 0 0-.263.562h0a3.29 3.29 0 0 0-.155.83l-.037.488-.489-.027c-2.33-.126-4.169-1.013-5.706-2.744h0c-1.407-1.583-2.492-3.772-3.616-6.472l-.288-.692h3.332l.121.325.104.28.016.043h0c.295.802.688 1.866 1.146 2.767h0c.33.646.624 1.071.894 1.33.26.249.474.325.67.325.21 0 .396-.08.552-.251h0c.238-.261.431-.76.497-1.65h0a8.7 8.7 0 0 0-.052-1.748l8.736 8.503zm0 0v0m0 0v0m0 0H27.398l-.375-.729c-.249-.483-.74-1.145-1.692-2.025h0l-.009-.008c-.133-.117-.717-.65-.939-.917l-.002-.003-.001-.002c-.174-.219-.254-.425-.266-.624-.013-.2.04-.44.214-.732.212-.354.582-.83 1.047-1.425h0l.093-.119c.512-.653 1.282-1.638 1.629-2.364l.34-.714-.79-.001c-.24 0-2.273-.003-2.87-.002l-.338.001-.126.313a18.594 18.594 0 0 1-1.212 2.405c-.782 1.298-1.337 1.774-1.655 1.948a.743.743 0 0 1-.306.103.711.711 0 0 1-.093 0l-.05-.002-.256-.074a.708.708 0 0 1-.13-.087h0c-.226-.198-.37-.546-.425-1.096-.055-.543-.016-1.178.027-1.858h0v-.006c.018-.272.037-.561.043-.82.007-.248.005-.513-.035-.717l-.068-.352-.355-.049a15.438 15.438 0 0 0-2.41-.106l-.806.034.39.707c.124.227.185.498.232.818l8.736 8.503zM23.4 12.445v0z" fill="#828282" stroke="#44220F"/></g><defs><clipPath id="clip1"><path fill="#fff" transform="translate(8 8)" d="M0 0h20v19H0z"/></clipPath></defs></svg>
